public/pieces/california/wQ.svg

<svg height="408pt" viewBox="-50 -90 498 528" width="408pt" xmlns="http://www.w3.org/2000/svg"><g transform="translate(0 -20)"><path d="m319.324219 393h-230.648438c4.5-5.578125 17.746094-23.472656 17.746094-49.5 0-6.972656-.953125-28.679688-17.746094-49.5h230.648438c-4.5 5.578125-17.742188 23.472656-17.742188 49.5 0 6.972656.949219 28.679688 17.742188 49.5" fill="#ccc"/><path d="m140 393c3.5625-10.28125 11.433594-25.773438 12-45 .699219-23.796875-8.101562-41.722656-12-53-10.679688 0-27.253906-1-37.933594-1l15.5625 54-24.714844 45zm0 0" fill="#fff"/><path d="m113.503906 378h180.980469c-5.523437-14.015625-6.632813-26.636719-6.632813-34.5 0-13.320312 2.828126-24.914062 6.644532-34.5h-180.980469c5.523437 14.015625 6.632813 26.636719 6.632813 34.5 0 13.320312-2.828126 24.914062-6.644532 34.5m205.816406 30h-230.640624c-5.398438 0-10.292969-3.453125-12.511719-8.824219-2.222657-5.375-1.355469-11.667969 2.210937-16.09375 5.34375-6.628906 14.3125-20.585937 14.3125-39.582031 0-8.152344-1.859375-24.140625-14.316406-39.585938-3.5625-4.421874-4.429688-10.71875-2.207031-16.089843 2.21875-5.371094 7.113281-8.824219 12.511719-8.824219h230.640624c5.398438 0 10.292969 3.453125 12.511719 8.824219 2.222657 5.375 1.359375 11.667969-2.210937 16.09375-5.34375 6.628906-14.3125 20.585937-14.3125 39.582031 0 8.152344 1.859375 24.140625 14.3125 39.585938 3.570312 4.421874 4.433594 10.71875 2.210937 16.089843-2.21875 5.371094-7.113281 8.824219-12.511719 8.824219"/><path d="m91.101562 254.300781-35.371093-126.96875c3.238281 1.949219 50.433593 69.042969 74.132812 54.167969 18.851563-11.832031 14.929688-84.179688 16.476563-112.5 8.296875 26.242188 36.085937 93.75 57.660156 93.75s49.363281-67.507812 57.660156-93.75c.523438 3.230469-7.828125 97.15625 24.710938 112.5 18.585937 8.765625 59.882812-51.511719 65.902344-54.167969-6.167969 35.207031-28.808594 83.804688-34.972657 126.796875-3.28125 22.882813-22.648437 39.871094-45.507812 39.871094h-135.210938c-22.789062 0-42.140625-16.890625-45.480469-39.699219" fill="#ccc"/><path d="m86.828125 159c66.171875 33 6.171875 120 143.171875 120l-100.027344 15c-11.191406-10.46875-34.066406-34.773438-43.144531-72-6.589844-27.015625-3.199219-49.722656 0-63" fill="#fff"/><path d="m84.824219 180.261719 19.410156 69.671875c.183594.65625.324219 1.324218.421875 2 2.261719 15.429687 15.988281 27.066406 31.925781 27.066406h135.214844c15.984375 0 29.71875-11.691406 31.941406-27.191406 3.394531-23.65625 11.148438-47.886719 18.902344-71.429688-14.898437 13.738282-28.769531 20.996094-41.707031 14.890625-16.640625-7.84375-27.207032-28.601562-31.417969-61.707031-16.027344 30.144531-30.496094 44.1875-45.515625 44.1875-15.078125 0-29.59375-14.148438-45.691406-44.519531-.03125-.0625-.066406-.128907-.097656-.191407-2.066407 30.175782-7.304688 52.554688-21.507813 61.46875-4.605469 2.886719-9.4375 4.160157-14.382813 4.160157-12.390624 0-25.488281-7.984375-37.496093-18.40625m186.972656 128.738281h-135.214844c-14.125 0-27.832031-5.175781-38.601562-14.578125-10.75-9.378906-17.917969-22.363281-20.265625-36.660156l-35.117188-126.058594c-1.628906-5.839844.144532-12.171875 4.484375-16.019531 4.335938-3.847656 10.375-4.433594 15.265625-1.492188 2.628906 1.578125 4.121094 3.40625 9.070313 9.457032 6.425781 7.855468 18.390625 22.480468 30.515625 33.101562 13.46875 11.796875 19.84375 12.3125 21.015625 11.785156.488281-.507812 4.574219-5.359375 6.976562-27.066406 1.777344-16.09375 2.003907-35.355469 2.183594-50.835938.105469-8.8125.191406-16.425781.527344-22.527343.386719-7.144531 5.34375-12.992188 11.835937-13.964844 6.484375-.972656 12.703125 3.195313 14.84375 9.960937 4.09375 12.953126 12.351563 34.003907 21.566406 51.824219 12.207032 23.609375 20.519532 30.757813 23.117188 31.753907 2.597656-.996094 10.910156-8.144532 23.117188-31.753907 9.214843-17.820312 17.472656-38.871093 21.566406-51.824219 2.042968-6.460937 7.828125-10.585937 14.0625-10.054687 6.234375.539063 11.351562 5.621094 12.4375 12.351563.324218 2.007812.265625 3.449218.078125 8.222656-2.902344 73.414062 10.296875 89.257812 15.691406 92.632812 1.535156-.429687 6.34375-2.4375 16.085937-11.765625 8.308594-7.953125 16.664063-17.789062 23.378907-25.695312 8.890625-10.46875 12.214843-14.382813 16.710937-16.367188 4.660156-2.058593 9.976563-1.167969 13.859375 2.320313 3.882813 3.484375 5.710938 9.011718 4.765625 14.40625-2.988281 17.066406-9.296875 36.191406-15.976562 56.441406-7.734375 23.453125-15.734375 47.707031-18.914063 69.855469-2.117187 14.773437-9.355469 28.230469-20.382812 37.898437-10.785157 9.449219-24.519531 14.652344-38.683594 14.652344"/><path d="m168 42c0 14.910156-12.089844 27-27 27s-27-12.089844-27-27 12.089844-27 27-27 27 12.089844 27 27" fill="#f2f2f2"/><path d="m0 0c0-14.910156-12.089844-27-27-27s-27 12.089844-27 27 12.089844 27 27 27 27-12.089844 27-27zm0 0" fill="none" stroke="#000" stroke-linejoin="round" stroke-miterlimit="10" stroke-width="30" transform="matrix(1 0 0 -1 168 42)"/><path d="m294 42c0 14.910156-12.089844 27-27 27s-27-12.089844-27-27 12.089844-27 27-27 27 12.089844 27 27" fill="#f2f2f2"/><path d="m0 0c0-14.910156-12.089844-27-27-27s-27 12.089844-27 27 12.089844 27 27 27 27-12.089844 27-27zm0 0" fill="none" stroke="#000" stroke-linejoin="round" stroke-miterlimit="10" stroke-width="30" transform="matrix(1 0 0 -1 294 42)"/><path d="m393 96c0 14.910156-12.089844 27-27 27s-27-12.089844-27-27 12.089844-27 27-27 27 12.089844 27 27" fill="#f2f2f2"/><path d="m0 0c0-14.910156-12.089844-27-27-27s-27 12.089844-27 27 12.089844 27 27 27 27-12.089844 27-27zm0 0" fill="none" stroke="#000" stroke-linejoin="round" stroke-miterlimit="10" stroke-width="30" transform="matrix(1 0 0 -1 393 96)"/><path d="m69 96c0 14.910156-12.089844 27-27 27s-27-12.089844-27-27 12.089844-27 27-27 27 12.089844 27 27" fill="#f2f2f2"/><g fill="none" stroke="#000" stroke-linejoin="round" stroke-miterlimit="10" stroke-width="30"><path d="m0 0c0-14.910156-12.089844-27-27-27s-27 12.089844-27 27 12.089844 27 27 27 27-12.089844 27-27zm0 0" transform="matrix(1 0 0 -1 69 96)"/><path d="m.00004375 0h197.69531225" transform="matrix(1 0 0 -1 105.1523 348)"/></g></g></svg>

<?xml version="1.0" encoding="UTF-8"?>
<svg xmlns="http://www.w3.org/2000/svg" xmlns:xlink="http://www.w3.org/1999/xlink" width="408pt" height="408pt" viewBox="-50 -90 498 528" version="1.1">
<g id="surface1" transform="translate(0 -20)">
<path style=" stroke:none;fill-rule:nonzero;fill:rgb(80.000305%,80.000305%,80.000305%);fill-opacity:1;" d="M 319.324219 393 L 88.675781 393 C 93.175781 387.421875 106.421875 369.527344 106.421875 343.5 C 106.421875 336.527344 105.46875 314.820312 88.675781 294 L 319.324219 294 C 314.824219 299.578125 301.582031 317.472656 301.582031 343.5 C 301.582031 350.472656 302.53125 372.179688 319.324219 393 "/>
<path style=" stroke:none;fill-rule:nonzero;fill:rgb(100%,100%,100%);fill-opacity:1;" d="M 140 393 C 143.5625 382.71875 151.433594 367.226562 152 348 C 152.699219 324.203125 143.898438 306.277344 140 295 C 129.320312 295 112.746094 294 102.066406 294 L 117.628906 348 L 92.914062 393 Z M 140 393 "/>
<path style=" stroke:none;fill-rule:nonzero;fill:rgb(0%,0%,0%);fill-opacity:1;" d="M 113.503906 378 L 294.484375 378 C 288.960938 363.984375 287.851562 351.363281 287.851562 343.5 C 287.851562 330.179688 290.679688 318.585938 294.496094 309 L 113.515625 309 C 119.039062 323.015625 120.148438 335.636719 120.148438 343.5 C 120.148438 356.820312 117.320312 368.414062 113.503906 378 M 319.320312 408 L 88.679688 408 C 83.28125 408 78.386719 404.546875 76.167969 399.175781 C 73.945312 393.800781 74.8125 387.507812 78.378906 383.082031 C 83.722656 376.453125 92.691406 362.496094 92.691406 343.5 C 92.691406 335.347656 90.832031 319.359375 78.375 303.914062 C 74.8125 299.492188 73.945312 293.195312 76.167969 287.824219 C 78.386719 282.453125 83.28125 279 88.679688 279 L 319.320312 279 C 324.71875 279 329.613281 282.453125 331.832031 287.824219 C 334.054688 293.199219 333.191406 299.492188 329.621094 303.917969 C 324.277344 310.546875 315.308594 324.503906 315.308594 343.5 C 315.308594 351.652344 317.167969 367.640625 329.621094 383.085938 C 333.191406 387.507812 334.054688 393.804688 331.832031 399.175781 C 329.613281 404.546875 324.71875 408 319.320312 408 "/>
<path style=" stroke:none;fill-rule:nonzero;fill:rgb(80.000305%,80.000305%,80.000305%);fill-opacity:1;" d="M 91.101562 254.300781 L 55.730469 127.332031 C 58.96875 129.28125 106.164062 196.375 129.863281 181.5 C 148.714844 169.667969 144.792969 97.320312 146.339844 69 C 154.636719 95.242188 182.425781 162.75 204 162.75 C 225.574219 162.75 253.363281 95.242188 261.660156 69 C 262.183594 72.230469 253.832031 166.15625 286.371094 181.5 C 304.957031 190.265625 346.253906 129.988281 352.273438 127.332031 C 346.105469 162.539062 323.464844 211.136719 317.300781 254.128906 C 314.019531 277.011719 294.652344 294 271.792969 294 L 136.582031 294 C 113.792969 294 94.441406 277.109375 91.101562 254.300781 "/>
<path style=" stroke:none;fill-rule:nonzero;fill:rgb(100%,100%,100%);fill-opacity:1;" d="M 86.828125 159 C 153 192 93 279 230 279 L 129.972656 294 C 118.78125 283.53125 95.90625 259.226562 86.828125 222 C 80.238281 194.984375 83.628906 172.277344 86.828125 159 "/>
<path style=" stroke:none;fill-rule:nonzero;fill:rgb(0%,0%,0%);fill-opacity:1;" d="M 203.703125 147.773438 Z M 204.296875 147.773438 Z M 122.902344 168.582031 Z M 84.824219 180.261719 L 104.234375 249.933594 C 104.417969 250.589844 104.558594 251.257812 104.65625 251.933594 C 106.917969 267.363281 120.644531 279 136.582031 279 L 271.796875 279 C 287.78125 279 301.515625 267.308594 303.738281 251.808594 C 307.132812 228.152344 314.886719 203.921875 322.640625 180.378906 C 307.742188 194.117188 293.871094 201.375 280.933594 195.269531 C 264.292969 187.425781 253.726562 166.667969 249.515625 133.5625 C 233.488281 163.707031 219.019531 177.75 204 177.75 C 188.921875 177.75 174.40625 163.601562 158.308594 133.230469 C 158.277344 133.167969 158.242188 133.101562 158.210938 133.039062 C 156.144531 163.214844 150.90625 185.59375 136.703125 194.507812 C 132.097656 197.394531 127.265625 198.667969 122.320312 198.667969 C 109.929688 198.667969 96.832031 190.683594 84.824219 180.261719 M 271.796875 309 L 136.582031 309 C 122.457031 309 108.75 303.824219 97.980469 294.421875 C 87.230469 285.042969 80.0625 272.058594 77.714844 257.761719 L 42.597656 131.703125 C 40.96875 125.863281 42.742188 119.53125 47.082031 115.683594 C 51.417969 111.835938 57.457031 111.25 62.347656 114.191406 C 64.976562 115.769531 66.46875 117.597656 71.417969 123.648438 C 77.84375 131.503906 89.808594 146.128906 101.933594 156.75 C 115.402344 168.546875 121.777344 169.0625 122.949219 168.535156 C 123.4375 168.027344 127.523438 163.175781 129.925781 141.46875 C 131.703125 125.375 131.929688 106.113281 132.109375 90.632812 C 132.214844 81.820312 132.300781 74.207031 132.636719 68.105469 C 133.023438 60.960938 137.980469 55.113281 144.472656 54.140625 C 150.957031 53.167969 157.175781 57.335938 159.316406 64.101562 C 163.410156 77.054688 171.667969 98.105469 180.882812 115.925781 C 193.089844 139.535156 201.402344 146.683594 204 147.679688 C 206.597656 146.683594 214.910156 139.535156 227.117188 115.925781 C 236.332031 98.105469 244.589844 77.054688 248.683594 64.101562 C 250.726562 57.640625 256.511719 53.515625 262.746094 54.046875 C 268.980469 54.585938 274.097656 59.667969 275.183594 66.398438 C 275.507812 68.40625 275.449219 69.847656 275.261719 74.621094 C 272.359375 148.035156 285.558594 163.878906 290.953125 167.253906 C 292.488281 166.824219 297.296875 164.816406 307.039062 155.488281 C 315.347656 147.535156 323.703125 137.699219 330.417969 129.792969 C 339.308594 119.324219 342.632812 115.410156 347.128906 113.425781 C 351.789062 111.367188 357.105469 112.257812 360.988281 115.746094 C 364.871094 119.230469 366.699219 124.757812 365.753906 130.152344 C 362.765625 147.21875 356.457031 166.34375 349.777344 186.59375 C 342.042969 210.046875 334.042969 234.300781 330.863281 256.449219 C 328.746094 271.222656 321.507812 284.679688 310.480469 294.347656 C 299.695312 303.796875 285.960938 309 271.796875 309 "/>
<path style=" stroke:none;fill-rule:nonzero;fill:rgb(94.902039%,94.902039%,94.902039%);fill-opacity:1;" d="M 168 42 C 168 56.910156 155.910156 69 141 69 C 126.089844 69 114 56.910156 114 42 C 114 27.089844 126.089844 15 141 15 C 155.910156 15 168 27.089844 168 42 "/>
<path style="fill:none;stroke-width:30;stroke-linecap:butt;stroke-linejoin:round;stroke:rgb(0%,0%,0%);stroke-opacity:1;stroke-miterlimit:10;" d="M 0 0 C 0 -14.910156 -12.089844 -27 -27 -27 C -41.910156 -27 -54 -14.910156 -54 0 C -54 14.910156 -41.910156 27 -27 27 C -12.089844 27 0 14.910156 0 0 Z M 0 0 " transform="matrix(1,0,0,-1,168,42)"/>
<path style=" stroke:none;fill-rule:nonzero;fill:rgb(94.902039%,94.902039%,94.902039%);fill-opacity:1;" d="M 294 42 C 294 56.910156 281.910156 69 267 69 C 252.089844 69 240 56.910156 240 42 C 240 27.089844 252.089844 15 267 15 C 281.910156 15 294 27.089844 294 42 "/>
<path style="fill:none;stroke-width:30;stroke-linecap:butt;stroke-linejoin:round;stroke:rgb(0%,0%,0%);stroke-opacity:1;stroke-miterlimit:10;" d="M 0 0 C 0 -14.910156 -12.089844 -27 -27 -27 C -41.910156 -27 -54 -14.910156 -54 0 C -54 14.910156 -41.910156 27 -27 27 C -12.089844 27 0 14.910156 0 0 Z M 0 0 " transform="matrix(1,0,0,-1,294,42)"/>
<path style=" stroke:none;fill-rule:nonzero;fill:rgb(94.902039%,94.902039%,94.902039%);fill-opacity:1;" d="M 393 96 C 393 110.910156 380.910156 123 366 123 C 351.089844 123 339 110.910156 339 96 C 339 81.089844 351.089844 69 366 69 C 380.910156 69 393 81.089844 393 96 "/>
<path style="fill:none;stroke-width:30;stroke-linecap:butt;stroke-linejoin:round;stroke:rgb(0%,0%,0%);stroke-opacity:1;stroke-miterlimit:10;" d="M 0 0 C 0 -14.910156 -12.089844 -27 -27 -27 C -41.910156 -27 -54 -14.910156 -54 0 C -54 14.910156 -41.910156 27 -27 27 C -12.089844 27 0 14.910156 0 0 Z M 0 0 " transform="matrix(1,0,0,-1,393,96)"/>
<path style=" stroke:none;fill-rule:nonzero;fill:rgb(94.902039%,94.902039%,94.902039%);fill-opacity:1;" d="M 69 96 C 69 110.910156 56.910156 123 42 123 C 27.089844 123 15 110.910156 15 96 C 15 81.089844 27.089844 69 42 69 C 56.910156 69 69 81.089844 69 96 "/>
<path style="fill:none;stroke-width:30;stroke-linecap:butt;stroke-linejoin:round;stroke:rgb(0%,0%,0%);stroke-opacity:1;stroke-miterlimit:10;" d="M 0 0 C 0 -14.910156 -12.089844 -27 -27 -27 C -41.910156 -27 -54 -14.910156 -54 0 C -54 14.910156 -41.910156 27 -27 27 C -12.089844 27 0 14.910156 0 0 Z M 0 0 " transform="matrix(1,0,0,-1,69,96)"/>
<path style="fill:none;stroke-width:30;stroke-linecap:butt;stroke-linejoin:round;stroke:rgb(0%,0%,0%);stroke-opacity:1;stroke-miterlimit:10;" d="M 0.00004375 0 L 197.695356 0 " transform="matrix(1,0,0,-1,105.1523,348)"/>
</g>
</svg>
